src/main/resources/icons/UIDesignerIcons/com/intellij/uiDesigner/icons/textPane.svg

<svg xmlns="http://www.w3.org/2000/svg" width="16" height="16" viewBox="0 0 16 16">
  <path fill="#9AA7B0" fill-opacity=".8" fill-rule="evenodd" d="M2,2 L14,2 L14,14 L2,14 L2,2 Z M3,3 L3,13 L13,13 L13,3 L3,3 Z M3.9,12 L7.3804,4.0335 L8.6686,4.0335 L12.149,12 L10.68,12 L9.8777,10.0903 L6.1374,10.0903 L5.3238,12 L3.9,12 Z M6.6459,8.8586 L9.3692,8.8586 L8.0019,5.6946 L6.6459,8.8586 Z"/>
</svg>

<svg xmlns="http://www.w3.org/2000/svg" width="16" height="16" viewBox="0 0 16 16"><rect id="frame" width="16" height="16" fill="none"/><path fill="#9AA7B0" fill-opacity=".8" fill-rule="evenodd" d="M2 2h12v12H2V2zm1 1v10h10V3H3zm.9 9l3.48-7.966H8.67L12.149 12H10.68l-.802-1.91h-3.74L5.323 12H3.9zm2.746-3.141h2.723L8.002 5.695 6.646 8.859z"/></svg>
